public/icons/admin/course.svg

<svg width="17" height="20" viewBox="0 0 17 20" fill="none" xmlns="http://www.w3.org/2000/svg">
<path id="Vector" d="M16.056 4.65571C16.0807 4.63998 16.1012 4.61747 16.1154 4.59041C16.1296 4.56335 16.1371 4.53269 16.1371 4.50148C16.1371 4.47028 16.1296 4.43962 16.1154 4.41256C16.1012 4.3855 16.0807 4.36298 16.056 4.34726L9.81423 0.386038C9.41485 0.133169 8.96142 0 8.4998 0C8.03818 0 7.58474 0.133169 7.18536 0.386038L0.944811 4.34726C0.920136 4.36298 0.899664 4.3855 0.885436 4.41256C0.871208 4.43962 0.863721 4.47028 0.863721 4.50148C0.863721 4.53269 0.871208 4.56335 0.885436 4.59041C0.899664 4.61747 0.920136 4.63998 0.944811 4.65571L8.41827 9.45792C8.44341 9.47409 8.47205 9.48262 8.50123 9.48262C8.5304 9.48262 8.55905 9.47409 8.58418 9.45792L16.056 4.65571ZM0.245196 5.87032C0.220269 5.8546 0.191983 5.84635 0.163199 5.8464C0.134416 5.84645 0.106154 5.8548 0.0812737 5.87061C0.0563929 5.88642 0.0357748 5.90912 0.0215043 5.93643C0.00723371 5.96373 -0.000183273 5.99467 3.44001e-06 6.02611V13.7883C0.000620386 14.1624 0.0908754 14.5297 0.261792 14.8539C0.432709 15.178 0.678332 15.4476 0.974234 15.6359L7.60096 19.9761C7.6258 19.9917 7.65397 20 7.68265 20C7.71133 20 7.73951 19.9918 7.76435 19.9761C7.7892 19.9605 7.80984 19.938 7.82419 19.9108C7.83855 19.8837 7.84613 19.853 7.84616 19.8216V10.8158C7.84613 10.7845 7.83856 10.7538 7.82421 10.7266C7.80987 10.6995 7.78925 10.677 7.76443 10.6614L0.245196 5.87032ZM9.15385 10.8471V19.8194C9.15388 19.8507 9.16145 19.8815 9.17581 19.9086C9.19017 19.9357 9.21081 19.9582 9.23565 19.9739C9.2605 19.9895 9.28867 19.9978 9.31735 19.9978C9.34603 19.9978 9.3742 19.9895 9.39904 19.9738L16.0254 15.6336C16.321 15.4456 16.5666 15.1764 16.7375 14.8527C16.9085 14.529 16.999 14.162 17 13.7883V6.02611C16.9999 5.99482 16.9923 5.96411 16.9779 5.93705C16.9635 5.91 16.9429 5.88755 16.918 5.87195C16.8932 5.85635 16.865 5.84816 16.8364 5.84818C16.8078 5.84821 16.7796 5.85646 16.7548 5.87211L9.23558 10.6931C9.21081 10.7087 9.19023 10.7311 9.17589 10.7581C9.16155 10.7852 9.15395 10.8158 9.15385 10.8471Z" fill="white"/>
</svg>

<svg xmlns="http://www.w3.org/2000/svg" fill="none" viewBox="0 0 17 20"><path fill="#fff" d="M16.06 4.66a.17.17 0 0 0 .06-.07.2.2 0 0 0 0-.18.17.17 0 0 0-.06-.06L9.8.39a2.45 2.45 0 0 0-2.62 0L.94 4.35a.17.17 0 0 0-.05.06.2.2 0 0 0 0 .18l.05.07 7.48 4.8a.15.15 0 0 0 .16 0l7.48-4.8ZM.25 5.87a.15.15 0 0 0-.17 0 .17.17 0 0 0-.06.07.2.2 0 0 0-.02.09v7.76c0 .37.1.74.26 1.06.17.33.42.6.71.79l6.63 4.34a.15.15 0 0 0 .16 0 .17.17 0 0 0 .06-.07.2.2 0 0 0 .03-.09v-9a.2.2 0 0 0-.03-.1.17.17 0 0 0-.06-.06L.25 5.87Zm8.9 4.98v8.97l.03.09c.01.03.03.05.06.06a.15.15 0 0 0 .16 0l6.63-4.34c.3-.18.54-.45.7-.78.18-.32.27-.69.27-1.06V6.03a.2.2 0 0 0-.02-.1.17.17 0 0 0-.06-.06.15.15 0 0 0-.17 0L9.24 10.7a.17.17 0 0 0-.06.07.2.2 0 0 0-.03.09Z"/></svg>
